src/pos-icons/call-merge.svg

<svg height="24" viewBox="0 0 24 24" width="24" xmlns="http://www.w3.org/2000/svg"><path d="m17 20.41 1.41-1.41-3.41-3.41-1.41 1.41m-6.09-9h3.5v5.59l-5.41 5.41 1.41 1.41 6-6v-6.41h3.5l-4.5-4.5"/></svg>

<?xml version="1.0" encoding="UTF-8"?><!DOCTYPE svg PUBLIC "-//W3C//DTD SVG 1.1//EN" "http://www.w3.org/Graphics/SVG/1.1/DTD/svg11.dtd"><svg xmlns="http://www.w3.org/2000/svg" xmlns:xlink="http://www.w3.org/1999/xlink" version="1.1" id="mdi-call-merge" width="24" height="24" viewBox="0 0 24 24"><path d="M17,20.41L18.41,19L15,15.59L13.59,17M7.5,8H11V13.59L5.59,19L7,20.41L13,14.41V8H16.5L12,3.5" /></svg>
